icons/fill-new-other-movie-film.svg

<svg xmlns="http://www.w3.org/2000/svg" width="32px" height="32px" viewBox="0 0 32 32" version="1.1">
    <title>fill-new-other-movie-film</title>
    <g id="fill-new-other-movie-film" stroke-width="1" fill-rule="evenodd">
        <path d="M28,3 C28.5522847,3 29,3.44771525 29,4 L29,28 C29,28.5522847 28.5522847,29 28,29 L4,29 C3.44771525,29 3,28.5522847 3,28 L3,4 C3,3.44771525 3.44771525,3 4,3 L28,3 Z M10,23 L5,23 L5,27 L10,27 L10,23 Z M27,23 L22,23 L22,27 L27,27 L27,23 Z M10,17 L5,17 L5,21 L10,21 L10,17 Z M27,17 L22,17 L22,21 L27,21 L27,17 Z M19,15 L13,15 C12.4477153,15 12,15.4477153 12,16 C12,16.5522847 12.4477153,17 13,17 L19,17 C19.5522847,17 20,16.5522847 20,16 C20,15.4477153 19.5522847,15 19,15 Z M10,11 L5,11 L5,15 L10,15 L10,11 Z M27,11 L22,11 L22,15 L27,15 L27,11 Z M10,5 L5,5 L5,9 L10,9 L10,5 Z M27,5 L22,5 L22,9 L27,9 L27,5 Z" id="&#24418;&#29366;" fill-rule="nonzero" />
    </g>
</svg>

<svg xmlns="http://www.w3.org/2000/svg" viewBox="0 0 32 32"><path fill="currentColor" d="M28 3a1 1 0 0 1 1 1v24a1 1 0 0 1-1 1H4a1 1 0 0 1-1-1V4a1 1 0 0 1 1-1zM10 23H5v4h5zm17 0h-5v4h5zm-17-6H5v4h5zm17 0h-5v4h5zm-8-2h-6a1 1 0 0 0 0 2h6a1 1 0 0 0 0-2m-9-4H5v4h5zm17 0h-5v4h5zM10 5H5v4h5zm17 0h-5v4h5z"/></svg>
